src/icons/handmade.svg

<svg width="35" height="34" viewBox="0 0 35 34" xmlns="http://www.w3.org/2000/svg">
<path d="M0.305558 13.9528C-0.101853 16.0303 -0.101853 18.1079 0.305558 20.1854L4.48152 17.0196L0.305558 13.9528Z"/>
<path d="M24.852 1.586C19.9631 -0.590493 14.2593 -0.590493 9.26855 1.98172L16.9075 7.52187L24.852 1.586Z"/>
<path d="M34.5281 13.062L29.6392 16.7225L34.6299 20.3829C35.1392 18.0086 35.1392 15.4364 34.5281 13.062Z"/>
<path d="M9.37036 32.057C14.2593 34.5303 20.2686 34.7281 25.3612 32.1559L17.1112 26.1211L9.37036 32.057Z"/>
<path d="M8.04644 14.2488L1.73157 9.698C1.42601 10.3905 1.12045 11.083 0.916748 11.7756L6.31494 15.7328L8.04644 14.2488Z"/>
<path d="M18.9446 24.8349L27.3984 30.9686C27.7039 30.7707 28.0095 30.5729 28.2132 30.375C28.5187 30.1772 28.8243 29.8804 29.1298 29.5836L20.6761 23.4498L18.9446 24.8349Z"/>
<path d="M11.6112 11.5781L4.07408 6.13684C3.56482 6.6315 3.15741 7.22509 2.75 7.81867L9.77784 12.9631L11.6112 11.5781Z"/>
<path d="M22.5095 22.1635L30.7596 28.1983C31.2689 27.7036 31.6763 27.11 32.0837 26.5165L24.241 20.7784L22.5095 22.1635Z"/>
<path d="M15.176 8.90696L7.3333 3.16895C7.1296 3.26788 6.92589 3.46574 6.72219 3.56467C6.31478 3.86146 5.90736 4.15826 5.60181 4.55398L13.4445 10.1931L15.176 8.90696Z"/>
<path d="M26.0742 19.3936L33.2039 24.538C33.5095 23.8455 33.815 23.2519 34.1206 22.5594L27.9076 18.0085L26.0742 19.3936Z"/>
<path d="M26.8892 2.67419L0.916748 22.3615C1.12045 23.054 1.42601 23.7466 1.73157 24.4391L28.7225 3.9603C28.2133 3.46564 27.6022 3.06992 26.8892 2.67419Z"/>
<path d="M31.2687 6.53234C30.9632 6.13661 30.6576 5.74089 30.352 5.44409L2.85181 26.2197C3.05551 26.7143 3.36107 27.11 3.66663 27.4068C3.76848 27.6047 3.97219 27.8026 4.07404 27.9015L31.778 7.12592C31.5743 6.92806 31.4724 6.7302 31.2687 6.53234Z"/>
<path d="M32.8983 8.90674L5.70361 29.4844C6.21288 29.9791 6.82399 30.4738 7.43511 30.8695L33.9168 10.8854C33.6112 10.1928 33.3057 9.50033 32.8983 8.90674Z"/>
</svg>

<svg width="35" height="34" viewBox="0 0 35 34" xmlns="http://www.w3.org/2000/svg"><path d="M.3 13.95c-.4 2.08-.4 4.16 0 6.24l4.18-3.17-4.17-3.07Z"/><path d="M24.85 1.59a17.96 17.96 0 0 0-15.58.4l7.64 5.53 7.94-5.93Z"/><path d="m34.53 13.06-4.9 3.66 5 3.66c.5-2.37.5-4.94-.1-7.32Z"/><path d="M9.37 32.06a17.84 17.84 0 0 0 16 .1l-8.26-6.04-7.74 5.94Z"/><path d="M8.05 14.25 1.73 9.7c-.3.7-.61 1.38-.81 2.08l5.4 3.95 1.73-1.48Z"/><path d="m18.94 24.83 8.46 6.14c.3-.2.61-.4.81-.6.3-.2.61-.49.92-.79l-8.45-6.13-1.74 1.38Z"/><path d="M11.61 11.58 4.07 6.14c-.5.5-.91 1.09-1.32 1.68l7.03 5.14 1.83-1.38Z"/><path d="m22.5 22.16 8.26 6.04c.5-.5.92-1.09 1.32-1.68l-7.84-5.74-1.73 1.38Z"/><path d="M15.18 8.9 7.33 3.18c-.2.1-.4.3-.6.4-.42.3-.82.59-1.13.98l7.84 5.64 1.74-1.28Z"/><path d="m26.07 19.4 7.13 5.14c.3-.7.61-1.29.92-1.98L27.91 18l-1.84 1.38Z"/><path d="M26.89 2.67.92 22.37c.2.68.5 1.38.81 2.07l27-20.48a8.84 8.84 0 0 0-1.84-1.29Z"/><path d="M31.27 6.53a9.4 9.4 0 0 0-.92-1.09L2.85 26.22c.2.5.51.89.82 1.19.1.2.3.4.4.5l27.7-20.78c-.2-.2-.3-.4-.5-.6Z"/><path d="M32.9 8.9 5.7 29.49c.51.5 1.12 1 1.74 1.39L33.92 10.9c-.3-.7-.61-1.39-1.02-1.98Z"/></svg>
